!!!COM: Palestrina, Giovanni Perluigi da
!!!OPR: Missa Veni Sancte Spiritus
!!!OMD: Credo
!!!OTL: Et iterum
**kern	**kern	**kern	**kern	**kern
*Ibass	*Itenor	*Itenor	*Icalto	*Icant
!Bassus	!Tenor 2	!Tenor 1	!Altus	!Cantus
*clefF4	*clefGv2	*clefGv2	*clefG2	*clefG2
*k[b-]	*k[b-]	*k[b-]	*k[b-]	*k[b-]
*G:dor	*G:dor	*G:dor	*G:dor	*G:dor
*M4/2	*M4/2	*M4/2	*M4/2	*M4/2
=128	=128	=128	=128	=128
1G	1B	1g	1r	1dd
2C	2c	2e	1g	2ee
2C	2c	2e	.	2ee
=129	=129	=129	=129	=129
1F	2A	1c	2a	2.ff
.	2c	.	2a	.
.	.	.	.	4ee-
1G	2.B-	1g	[1b-	4dd
.	.	.	.	4cc
.	.	.	.	[2dd
.	4c	.	.	.
=130	=130	=130	=130	=130
2B-	2d	2.f	2b-]	2dd]
2F	2A	.	2a	2cc
.	.	4e	.	.
1G	2.B-	2d	1g	1b-
.	.	2G	.	.
.	4c	.	.	.
=131	=131	=131	=131	=131
1D	1d	1A	1f#	1a
2r	1G	1B-	2g	1dd
2G	.	.	2d	.
=132	=132	=132	=132	=132
2G	1r	2B-	2e	1r
2A	.	2c	2f#	.
4B-	1G	1d	1g	2r
4A	.	.	.	.
4G	.	.	.	2b-
4F	.	.	.	.
=133	=133	=133	=133	=133
4E-	2G	1e-	1r	2b-
4D	.	.	.	.
2C	2A	.	.	2cc
2G	2B-	2d	[1g	2dd
2C	[2c	2c	.	[2ee-
=134	=134	=134	=134	=134
1G	2c]	1d	2g]	2ee-]
.	2B-	.	2g	1dd
1C	1e-	2r	1g	.
.	.	[2g	.	2cc
=135	=135	=135	=135	=135
0r	2d	2g]	0a	1dd
.	1d	1f	.	.
.	.	.	.	1r
.	[2c	4e	.	.
.	.	4d	.	.
=136	=136	=136	=136	=136
0r	2c]	2e	1g	2r
.	2B-	2d	.	1dd
.	2A	2a	2f	.
.	2A	2a	2e	[2cc
=137	=137	=137	=137	=137
1G	4G	2.d	2g	2cc]
.	4A	.	.	.
.	4B-	.	2g	2b-
.	4G	4e	.	.
[1F	4A	4f	[1c	2.a
.	4G	4g	.	.
.	4F	[2a	.	.
.	4G	.	.	4b-
=138	=138	=138	=138	=138
2F]	4A	2a]	1c]	2cc
.	4B-	.	.	.
2E	2.c	2g	.	2cc
2D	.	1f	2r	2dd
.	4B	.	.	.
2D	4B	.	2f	[2ff
.	4A	.	.	.
=139	=139	=139	=139	=139
1C	1c	2r	1g	2ff]
.	.	2c	.	2ee
1r	1r	1d	1b-	1dd
=140	=140	=140	=140	=140
1F	2r	1f	1a	1cc
.	1f	.	.	.
1A	.	1c	2r	2r
.	2e	.	2a	2cc
=141	=141	=141	=141	=141
1B-	1d	1r	2f	2dd
.	.	.	2g	2dd
1A	1e	2r	2.a	2.cc
.	.	2c	.	.
.	.	.	4g	4b-
=142	=142	=142	=142	=142
2r	2r	2d	2f	4a
.	.	.	.	4g
2A	2c	2e	2e	1a
2F	2d	2f	2r	.
2G	2d	2d	2g	2b
=143	=143	=143	=143	=143
2.A	2.c	1a	2e	0cc
.	.	.	2e	.
4G	4B-	.	.	.
4F	4A	2.a	2.f	.
4E	4G	.	.	.
[2F	[2A	.	.	.
.	.	4g	4g	.
=144	=144	=144	=144	=144
2F]	2A]	2f	2a	0dd
2G	2B-	2d	1g	.
1D	1A	[1d	.	.
.	.	.	2f#	.
=145	=145	=145	=145	=145
1G	2.B-	1d]	1g	2r
.	.	.	.	1dd
.	4c	.	.	.
1r	1d	[1f	2r	.
.	.	.	[2a	2dd
=146	=146	=146	=146	=146
0r	0r	2f]	2a]	1.cc
.	.	2f	2a	.
.	.	2e	2g	.
.	.	2d	2f	2b
=147	=147	=147	=147	=147
0r	0r	2e	2g	1cc
.	.	2.f	2.a	.
.	.	.	.	[1dd
.	.	4e	4g	.
.	.	4d	4f	.
.	.	4c	4e	.
=148	=148	=148	=148	=148
0r	1r	2B-	2d	2dd]
.	.	2A	2f	2cc
.	2r	2G	2.g	2b-
.	[2d	2G	.	2b-
.	.	.	4f	.
=149	=149	=149	=149	=149
1r	2d]	1A	2e	1a
.	2c	.	2e	.
2r	4f	2r	2d	1r
.	4e	.	.	.
[2G	4d	[2d	[2b-	.
.	4c	.	.	.
=150	=150	=150	=150	=150
2G]	2B-	2d]	2b-]	0r
2F	2c	2f	2a	.
2B-	4d	2d	2g	.
.	4e	.	.	.
2A	[2f	2c	2f	.
=151	=151	=151	=151	=151
1G	2f]	2d	4g	0r
.	.	.	4a	.
.	2e	4c	1b-	.
.	.	4B-	.	.
1F	1f	1c	.	.
.	.	.	2a	.
=152	=152	=152	=152	=152
1BB-	1.d	1B-	2b-	2r
.	.	.	1f	1b-
1r	.	1r	.	.
.	2e	.	2g	2cc
=153	=153	=153	=153	=153
0r	2f	0r	2a	2dd
.	2g	.	2b-	2dd
.	1c	.	1cc	1ee-
=154	=154	=154	=154	=154
0r	2d	0r	2b-	2dd
.	2f	.	2a	1cc
.	2e-	.	2g	.
.	2d	.	2f	2b-
=155	=155	=155	=155	=155
0r	1c	1r	2.cc	2a
.	.	.	.	1g
.	.	.	4b-	.
.	1d	2r	1a	.
.	.	[2d	.	2f#
=156	=156	=156	=156	=156
2r	1G	2d]	2g	2g
1G	.	2d	1b-	1dd
.	1r	1g	.	.
2G	.	.	2b-	2dd
=157	=157	=157	=157	=157
1d	0r	2f	1a	1ff
.	.	2d	.	.
2c	.	2e	2a	2ee
2A	.	[2f	2a	2cc
=158	=158	=158	=158	=158
2B-	1r	2f]	2f	2dd
2B-	.	4e	2g	2dd
.	.	4d	.	.
1A	2r	2e	1a	1cc#
.	[2A	2e	.	.
=159	=159	=159	=159	=159
1.D	2A]	1d	1.f	2r
.	2A	.	.	1dd
.	2B-	2r	.	.
2D	2A	[2d	2f	2dd
=160	=160	=160	=160	=160
2G	2G	2d]	2g	2b-
2F#	2d	2d	2a	2a
[1G	2r	2.B-	[1b-	4g
.	.	.	.	4a
.	[2d	.	.	4b-
.	.	4A	.	4cc
=161	=161	=161	=161	=161
1G]	2d]	1G	1b-]	1dd
.	1g	.	.	.
1D	.	2A	2a	2dd
.	4f#	2d	2a	2dd
.	4e	.	.	.
=162	=162	=162	=162	=162
0r	2f#	2d	2a	2dd
.	2g	2g	2b-	2dd
.	2c	2g	2cc	2ee-
.	2d	2f#	2a	2dd
=163	=163	=163	=163	=163
1r	1G	1g	1b-	1dd
2r	[1A	2e	1a	2cc#
[2A	.	[2c#	.	[2ee
=164	=164	=164	=164	=164
2A]	1A]	2c#]	2r	2ee]
2A	.	2c#	1a	2ee
1D	2r	2d	.	2ff#
.	[2d	2A	2a	2ff#
=165	=165	=165	=165	=165
1G	2d]	2G	2b	2.gg
.	2d	2.g	2b	.
.	.	.	.	4ff
1C	2e	.	2.cc	4ee
.	.	4f	.	4dd
.	2e	4e	.	[2cc
.	.	4d	4b-	.
=166	=166	=166	=166	=166
2.F	2f	2c	4a	2cc]
.	.	.	4g	.
.	1a	2A	1f	1ff
4E	.	.	.	.
2D	.	1A	.	.
2C#	2e	.	[2a	[2ee
=167	=167	=167	=167	=167
1D	1f	0A	2a]	2ee]
.	.	.	2a	1dd
1A	1e	.	1a	.
.	.	.	.	2cc#
=168	=168	=168	=168	=168
1B-	1d	2r	1f	1dd
.	.	2d	.	.
2B-	2f	2d	2r	1r
2A	2f	2c	2cc	.
=169	=169	=169	=169	=169
1G	2e	1g	2cc	0r
.	1d	.	2b-	.
1A	.	2e	1a	.
.	2c	[2f	.	.
=170	=170	=170	=170	=170
1B-	1d	4f]	2.f	0r
.	.	4e	.	.
.	.	2d	.	.
.	.	.	4g	.
2A	2e	2c	2a	.
2G	2e	2B-	2b-	.
=171	=171	=171	=171	=171
2.F	1f	2c	0a	2r
.	.	2d	.	2ff
4G	.	.	.	.
1A	1r	2d	.	2ff
.	.	2c	.	2ee
=172	=172	=172	=172	=172
0r	1f	2.B-	0r	2.dd
.	.	4A	.	4cc
.	2f	2B-	.	2dd
.	2e	2c	.	2g
=173	=173	=173	=173	=173
0r	2d	2B-	2r	2g
.	2c	2A	2cc	2f#
.	1d	1G	2cc	1g
.	.	.	2b-	.
=174	=174	=174	=174	=174
0r	2.f	0r	2.a	1cc
.	4e	.	4g	.
.	4d	.	2a	1dd
.	4c	.	.	.
.	2B-	.	2b-	.
=175	=175	=175	=175	=175
1r	2F	2r	2a	2cc
.	2G	1d	2g	2b-
2r	1d	.	2f	1a
2d	.	[2f	2a	.
=176	=176	=176	=176	=176
2d	0r	2f]	2a	0r
2c	.	2e	2a	.
2.B-	.	2.d	2g	.
.	.	.	2f	.
4A	.	4c	.	.
=177	=177	=177	=177	=177
2B-	2r	2d	2g	0r
2c	2c	2e	2g	.
1A	2e	1c	[1cc	.
.	2f	.	.	.
=178	=178	=178	=178	=178
1G	2.g	2d	2cc]	1r
.	.	2d	2b-	.
.	8f	.	.	.
.	8e	.	.	.
1r	2f	2d	1r	1a
.	2d	[2f	.	.
=179	=179	=179	=179	=179
2r	1r	2f]	1a	2cc
2D	.	2d	.	1dd
2D	2r	1a	2f	.
[2F	2A	.	[2f	2cc
=180	=180	=180	=180	=180
2F]	2c	1a	2f]	1ff
2D	1d	.	2f	.
1A	.	2r	2a	1ee
.	2c	[2a	2e	.
=181	=181	=181	=181	=181
2D	2f	4a]	1a	4dd
.	.	4g	.	4ee
1d	4d	4f	.	4ff
.	4e	4e	.	4gg
.	4f	2d	1a	2ff
.	4g	.	.	.
2c#	2a	2A	.	[2ee
=182	=182	=182	=182	=182
1d	2f	4d	0a	2ee]
.	.	4e	.	.
.	2f	4f	.	1dd
.	.	4g	.	.
1A	1e	2a	.	.
.	.	2e	.	2cc#
=183	=183	=183	=183	=183
1D	2d	0f#	1a	0dd
.	1a	.	.	.
1d	.	.	2r	.
.	[2d	.	2a	.
=184	=184	=184	=184	=184
1G	2d]	1g	1b	1dd
.	2.g	.	.	.
[1c	.	1e	2.cc	1g
.	4f	.	.	.
.	[2e	.	.	.
.	.	.	4b-	.
=185	=185	=185	=185	=185
2c]	2e]	2c	2a	0cc
2B-	2d	2d	2.g	.
1A	1c	2e	.	.
.	.	.	4f	.
.	.	2f	[2f	.
=186	=186	=186	=186	=186
1G	2d	1g	2f]	1b-
.	2B-	.	2e	.
2.F	1c	1r	2f	1a
.	.	.	[2a	.
4E	.	.	.	.
=187	=187	=187	=187	=187
1D	1.f	1.d	2a]	0r
.	.	.	2b-	.
1r	.	.	2a	.
.	2g	2e-	2g	.
=188	=188	=188	=188	=188
0r	2f	2d	1a	1r
.	2e	2c	.	.
.	1f#	2.d	1a	2r
.	.	.	.	[2dd
.	.	4c	.	.
=189	=189	=189	=189	=189
0r	1g	2B-	2r	2dd]
.	.	2c	2g	2ee-
.	2r	2d	2f#	2dd
.	2g	2e-	2g	2cc
=190	=190	=190	=190	=190
2r	2f#	1.d	2a	2dd
1G	2.g	.	2b-	2dd
.	.	.	1g	2b-
.	4f	.	.	.
2C	2e-	4c	.	[2cc
.	.	4B-	.	.
=191	=191	=191	=191	=191
2.D	1d	2A	2f	4cc]
.	.	.	.	4b-
.	.	1F	2f	1b-
4E-	.	.	.	.
1F	1c	.	1f	.
.	.	[2f	.	2a
=192	=192	=192	=192	=192
0BB-	0B-	2f]	1d	2.b-
.	.	2f	.	.
.	.	.	.	4cc
.	.	1d	[1f	1dd
=193	=193	=193	=193	=193
0F	0A	1c	1f]	1r
.	.	1F	1a	[1ff
=194	=194	=194	=194	=194
0C	0c	0G	0g	1ff]
.	.	.	.	1ee
=195	=195	=195	=195	=195
1BB-	0d	1B-	2r	1ff
.	.	.	2d	.
1D	.	2A	1f	1dd
.	.	[2B-	.	.
=196	=196	=196	=196	=196
1E-	0G	2B-]	[0g	1b-
.	.	2G	.	.
1C	.	1e-	.	1cc
=197	=197	=197	=197	=197
1.G	1B-	1d	0g]	2.dd
.	.	.	.	4cc
.	1B-	[1d	.	4b-
.	.	.	.	4a
2G	.	.	.	[2g
=198	=198	=198	=198	=198
0D	1.A	1d]	1.a	2g]
.	.	.	.	4f#
.	.	.	.	4e
.	.	2.d	.	2f#
.	2A	.	2d	2f#
.	.	4c	.	.
=199	=199	=199	=199	=199
2r	1G	4B-	1d	2g
.	.	4c	.	.
1d	.	4d	.	1b-
.	.	4e	.	.
.	1F	1f	1r	.
2c	.	.	.	2a
=200	=200	=200	=200	=200
2.B-	1.G	[0d	1.b-	4g
.	.	.	.	4a
.	.	.	.	4b-
4A	.	.	.	4cc
2G	.	.	.	2.dd
2F#	2A	.	2a	.
.	.	.	.	4cc
=201	=201	=201	=201	=201
0G	1.B-	0d]	2.g	2b-
.	.	.	.	2g
.	.	.	8f	.
.	.	.	8e-	.
.	.	.	2d	2.b-
.	4A	.	[2g	.
.	4G	.	.	4cc
=202	=202	=202	=202	=202
0D	0A	1r	2g]	1dd
.	.	.	4f	.
.	.	.	4e	.
.	.	[1d	1f#	1a
=203	=203	=203	=203	=203
1.G	1.G	2d]	[0g	2b-
.	.	2c	.	2cc
.	.	2B-	.	1dd
2F	2A	2A	.	.
=204	=204	=204	=204	=204
2.E-	1B-	1G	1g_	1.ee-
4D	.	.	.	.
2C	[1c	2.g	1g_	.
2BB	.	.	.	2dd
.	.	4f	.	.
=205	=205	=205	=205	=205
0C	2c]	2e-	0g]	0cc
.	2d	2d	.	.
.	1e-	1c	.	.
=206	=206	=206	=206	=206
[0G	[0d	[0B	[0g	[0dd
=207	=207	=207	=207	=207
0G]	0d]	0B]	0g]	0dd]
==	==	==	==	==
*-	*-	*-	*-	*-
!!!CDT: 1525/^1526/-1594/2/2
!!!OCY: Italia
!!!AGN: Mass (Parody)
!!!AST: renaissance, vocal
!!!ASW: Motet (unidentified (Pal?))
!!!PWK: Masses, Book 4
!!!RNB: Cadence finals: D
!!!YOR: Le Opere Complete, v. 10, p. 115
!!!YOO: Rome, Italy: Fratelli Scalera
!!!END: 1992//
!!!EED: John Miller
!!!YEC: Copyright 2000, John Miller
!!!YEN: United States of America
!!!YEM: Rights to all derivative electronic formats reserved.
!!!YEM: Refer to licensing agreement for further details.
!!!YEM: This file must be accompanied by the licensing agreement.
!!!YEM: A copy of the licensing agreement may be found at http://www.music-cog.ohio-state.edu/HumdrumDatabases/Palestrina/license.txt
!!!EMD: converted to Humdrum by Bret Aarden
